images/NEAR.svg

<svg height="250" viewBox="0 0 250 250" width="250" xmlns="http://www.w3.org/2000/svg"><path d="m0 0h250v250h-250z" fill="#fff"/><path d="m164.277344 66.601562-27.167969 40.34375c-.4375.582032-.640625 1.308594-.570313 2.035157.074219.726562.421876 1.398437.972657 1.878906.546875.480469 1.257812.738281 1.988281.714844.726562-.019531 1.421875-.316407 1.941406-.832031l26.734375-23.109376c.152344-.140624.34375-.234374.550781-.269531.207032-.03125.417969-.003906.609376.082031.191406.085938.351562.226563.464843.402344.109375.179688.167969.382813.164063.59375v72.640625c-.003906.222657-.070313.433594-.199219.617188-.128906.179687-.304687.316406-.511719.390625-.210937.074218-.433594.085937-.648437.03125-.210938-.058594-.402344-.179688-.546875-.34375l-80.835938-96.78125c-1.289062-1.550782-2.902344-2.804688-4.730468-3.667969-1.824219-.863281-3.816407-1.316406-5.835938-1.328125h-2.8125c-3.671875 0-7.191406 1.460938-9.789062 4.058594-2.597657 2.597656-4.054688 6.121094-4.054688 9.792968v102.296876c0 3.671874 1.457031 7.195312 4.054688 9.792968 2.597656 2.597656 6.117187 4.058594 9.789062 4.058594 2.363281 0 4.691406-.605469 6.753906-1.761719 2.066406-1.15625 3.800782-2.824219 5.039063-4.839843l27.164062-40.34375c.441407-.582032.644531-1.308594.570313-2.035157-.074219-.726562-.417969-1.398437-.96875-1.878906-.546875-.480469-1.257813-.738281-1.988282-.714844-.730468.019531-1.421874.316407-1.941406.832031l-26.734375 23.109376c-.152343.140624-.347656.234374-.550781.269531-.207031.03125-.417969.003906-.609375-.082031-.191406-.085938-.351563-.226563-.464844-.402344-.109375-.179688-.167969-.382813-.164062-.59375v-72.570313c0-.21875.070312-.433593.199219-.613281.125-.179688.304687-.316406.511718-.390625.207032-.078125.433594-.085937.648438-.03125.210937.054687.402344.175781.546875.34375l80.835937 96.777344c1.296875 1.539062 2.917969 2.777343 4.746094 3.625 1.828125.847656 3.816406 1.289062 5.832031 1.285156h2.886719c1.820312 0 3.617188-.355469 5.296875-1.054687 1.679687-.695313 3.207031-1.714844 4.492187-3 1.285157-1.289063 2.304688-2.816407 3-4.496094.695313-1.679688 1.054688-3.480469 1.054688-5.300782v-102.28125c0-1.824218-.359375-3.632812-1.0625-5.320312-.699219-1.6875-1.726562-3.21875-3.023438-4.503906-1.292968-1.289063-2.828124-2.308594-4.519531-2.996094-1.691406-.691406-3.5-1.042969-5.324219-1.03125-2.367187 0-4.691406.609375-6.757812 1.761719-2.0625 1.15625-3.796875 2.824219-5.035156 4.839843zm0 0" fill="#111618"/></svg>

<svg xmlns="http://www.w3.org/2000/svg" xmlns:xlink="http://www.w3.org/1999/xlink" width="250px" height="250px" viewBox="0 0 250 250" version="1.1">
<g id="surface1">
<rect x="0" y="0" width="250" height="250" style="fill:rgb(100%,100%,100%);fill-opacity:1;stroke:none;"/>
<path style=" stroke:none;fill-rule:nonzero;fill:rgb(6.666667%,8.627451%,9.411765%);fill-opacity:1;" d="M 164.277344 66.601562 L 137.109375 106.945312 C 136.671875 107.527344 136.46875 108.253906 136.539062 108.980469 C 136.613281 109.707031 136.960938 110.378906 137.511719 110.859375 C 138.058594 111.339844 138.769531 111.597656 139.5 111.574219 C 140.226562 111.554688 140.921875 111.257812 141.441406 110.742188 L 168.175781 87.632812 C 168.328125 87.492188 168.519531 87.398438 168.726562 87.363281 C 168.933594 87.332031 169.144531 87.359375 169.335938 87.445312 C 169.527344 87.53125 169.6875 87.671875 169.800781 87.847656 C 169.910156 88.027344 169.96875 88.230469 169.964844 88.441406 L 169.964844 161.082031 C 169.960938 161.304688 169.894531 161.515625 169.765625 161.699219 C 169.636719 161.878906 169.460938 162.015625 169.253906 162.089844 C 169.042969 162.164062 168.820312 162.175781 168.605469 162.121094 C 168.394531 162.0625 168.203125 161.941406 168.058594 161.777344 L 87.222656 64.996094 C 85.933594 63.445312 84.320312 62.191406 82.492188 61.328125 C 80.667969 60.464844 78.675781 60.011719 76.65625 60 L 73.84375 60 C 70.171875 60 66.652344 61.460938 64.054688 64.058594 C 61.457031 66.65625 60 70.179688 60 73.851562 L 60 176.148438 C 60 179.820312 61.457031 183.34375 64.054688 185.941406 C 66.652344 188.539062 70.171875 190 73.84375 190 C 76.207031 190 78.535156 189.394531 80.597656 188.238281 C 82.664062 187.082031 84.398438 185.414062 85.636719 183.398438 L 112.800781 143.054688 C 113.242188 142.472656 113.445312 141.746094 113.371094 141.019531 C 113.296875 140.292969 112.953125 139.621094 112.402344 139.140625 C 111.855469 138.660156 111.144531 138.402344 110.414062 138.425781 C 109.683594 138.445312 108.992188 138.742188 108.472656 139.257812 L 81.738281 162.367188 C 81.585938 162.507812 81.390625 162.601562 81.1875 162.636719 C 80.980469 162.667969 80.769531 162.640625 80.578125 162.554688 C 80.386719 162.46875 80.226562 162.328125 80.113281 162.152344 C 80.003906 161.972656 79.945312 161.769531 79.949219 161.558594 L 79.949219 88.988281 C 79.949219 88.769531 80.019531 88.554688 80.148438 88.375 C 80.273438 88.195312 80.453125 88.058594 80.660156 87.984375 C 80.867188 87.90625 81.09375 87.898438 81.308594 87.953125 C 81.519531 88.007812 81.710938 88.128906 81.855469 88.296875 L 162.691406 185.074219 C 163.988281 186.613281 165.609375 187.851562 167.4375 188.699219 C 169.265625 189.546875 171.253906 189.988281 173.269531 189.984375 L 176.15625 189.984375 C 177.976562 189.984375 179.773438 189.628906 181.453125 188.929688 C 183.132812 188.234375 184.660156 187.214844 185.945312 185.929688 C 187.230469 184.640625 188.25 183.113281 188.945312 181.433594 C 189.640625 179.753906 190 177.953125 190 176.132812 L 190 73.851562 C 190 72.027344 189.640625 70.21875 188.9375 68.53125 C 188.238281 66.84375 187.210938 65.3125 185.914062 64.027344 C 184.621094 62.738281 183.085938 61.71875 181.394531 61.03125 C 179.703125 60.339844 177.894531 59.988281 176.070312 60 C 173.703125 60 171.378906 60.609375 169.3125 61.761719 C 167.25 62.917969 165.515625 64.585938 164.277344 66.601562 Z M 164.277344 66.601562 "/>
</g>
</svg>
